X: 557
T: Salut les Boulduc
C: James Gray
R: reel
B: Alex & James Gray "Tweeddale Collection" v.4 p.53 #2,3
N: Tune for The Jelly Roll
Z: 2017 John Chambers <jc:trillian.mit.edu>
M: C|
L: 1/8
K: D
A2 |\
"D"D2dF A2df | abaf "D/f#"d2f2 | "G"gBBg "Bm"fAAf | "Em"efed "A7"cABc |
"D"D2dF A2df | abaf "D/f#"d2f2 | "G"gBBg "D/a"fAAf | "A7"eddc "D"d2 :|
de |\
"D"fAdf "G"g3g | "A"acea "G"b3b | "D"aAAa "A7"gAAg | "D"f2Af "A7"efec |
"D"fAdf "G"g3g | "A"acea "G"b3b | "D"aAAa "A7"gAAg | "D"fddc d2 |]
de |\
"D"fAdf "Em"g3g | "F#m"acea "G"b3b | "D"aAAa "A7"gAAg | "D"f2Af "A7"efec |
"D"fAdf "Em"gBdg | "F#m"acea "G E/g#"b4 | "A7"a3a A2a2 | "A7"eddc "D"d2 |]

%%sep 1 1 500

